X: 1007
T: Valcartier Set Part One
M: 6/8
L: 1/8
Q: 180
R: Quadrille
S: Keith Corrigan
Z: Transcribed by Steve Fry
K: D
F ABA|:"D"FDF "D#dim"ABA|"Em"GFG BGG|"Em7"cGG "A"~B2A|"D"dzF "C#+"ABA|"D"FDF "D#dim7"ABA|
"Em" GFG BGG|"Em7"cGG {c}"A"BGE|1 \
M:9/8
"A"DFA "D"dzF "C#+"ABA:||2 O "A"DFA "D"dzA "C#+"ABc|:
M:6/8
L:1/8
"D"dff "D#dim"Add|"Em"~cBc "A"ABc|\
M:9/8
L:1/8
|1 "A"dfe "D"dzA "C#+"ABc:|2 "A"dfe "D"dzF "C#+"ABA +D.S.+O||
O "A"DFA dAF|:"Em"E2F "Em/D"GFE|"A/C#"c3 {d}"A/G"c2B|"F#m"ABA "F#m/A"AFA|"Bm"d2d "B7/D#"dAF|
"Em"E2F "E7/D"GFE|"A/C#"c3 "E/B"~c2B|"A7"ABA "C#+"GFE|1 "D"DFA dAF:|
M:9/8
L:1/8
|:"D"DFA dzF "C#+"ABA||

%%newpage
